packages/core/src/svgs/tokens/branded/STMX.svg

<svg width="24" height="24" viewBox="0 0 24 24" fill="none" xmlns="http://www.w3.org/2000/svg">
<path d="M7.29412 3.17645H2.29412C2.29412 3.17645 7.00001 8.7647 7.88236 9.94122C8.77825 11.1353 9.75711 11.7888 8.17648 13.7647C5.82353 16.7058 2 20.8235 2 20.8235H7.29412C7.29412 20.8235 12.2941 14.647 12.8824 13.7647C13.5271 12.7976 14.0035 11.0489 12.8824 9.64709C11.7059 8.17647 7.29412 3.17645 7.29412 3.17645ZM22 3.17645H15.5294L12.5883 6.70587C12.5883 6.70587 14.2395 7.21234 14.6471 7.29411C16.1177 7.58822 16.7059 7.58822 17.5882 6.99998C17.6159 6.98176 22 3.17645 22 3.17645ZM22 20.8235H15.5294L12.5883 17.2941C12.5883 17.2941 14.2395 16.7876 14.6471 16.7058C16.1177 16.4117 16.7059 16.4117 17.5882 17C17.6159 17.0182 22 20.8235 22 20.8235Z" fill="#FF2A4D"/>
</svg>

<svg xmlns="http://www.w3.org/2000/svg" width="24" height="24" fill="none" viewBox="0 0 24 24">
    <path fill="#FF2A4D" d="M7.294 3.176h-5S7 8.765 7.882 9.941c.896 1.194 1.875 1.848.294 3.824C5.824 16.705 2 20.823 2 20.823h5.294s5-6.176 5.588-7.058c.645-.967 1.122-2.716 0-4.118-1.176-1.47-5.588-6.47-5.588-6.47m14.706 0h-6.47l-2.942 3.53s1.652.506 2.06.588c1.47.294 2.058.294 2.94-.294C17.616 6.982 22 3.176 22 3.176m0 17.648h-6.47l-2.942-3.53s1.652-.506 2.06-.588c1.47-.294 2.058-.294 2.94.294.028.018 4.412 3.823 4.412 3.823"/>
</svg>
